icons/virus-sanitizer-spray.svg

<svg width="48" height="48" viewBox="0 0 48 48" fill="none" xmlns="http://www.w3.org/2000/svg">
<path fill-rule="evenodd" clip-rule="evenodd" d="M23.1526 4.88259L24.5669 6.2968C25.1295 6.85941 25.4455 7.62247 25.4455 8.41812C25.4455 9.21377 25.1295 9.97683 24.5669 10.5394L22.0312 13.0751L22.0312 16.0748C22.0312 16.8705 21.7152 17.6336 21.1525 18.1962L15.3744 23.9744C13.4218 25.927 10.2559 25.927 8.30331 23.9744L5.47488 21.146C3.52226 19.1933 3.52226 16.0275 5.47488 14.0749L11.253 8.29676C11.8157 7.73411 12.5788 7.41804 13.3745 7.41808L16.3743 7.41827L18.91 4.88259C19.4726 4.31998 20.2357 4.00391 21.0313 4.00391C21.827 4.00391 22.59 4.31998 23.1526 4.88259ZM21.7384 6.2968C21.5509 6.10926 21.2965 6.00391 21.0313 6.00391C20.7661 6.00391 20.5117 6.10926 20.3242 6.2968L18.2029 8.41812L21.0313 11.2465L23.1526 9.12523C23.3402 8.93769 23.4455 8.68334 23.4455 8.41812C23.4455 8.1529 23.3402 7.89855 23.1526 7.71101L21.7384 6.2968ZM16.3743 9.41827L13.3744 9.41808C13.1092 9.41807 12.8548 9.52343 12.6672 9.71098L6.8891 15.4891C5.71752 16.6607 5.71752 18.5602 6.8891 19.7317L9.71752 22.5602C10.8891 23.7317 12.7886 23.7317 13.9602 22.5602L19.7383 16.782C19.9259 16.5945 20.0312 16.3401 20.0312 16.0749L20.0312 13.0752L16.3743 9.41827Z" fill="black"/>
<path d="M31.5031 10.6299C31.463 10.6691 31.4238 10.7091 31.3853 10.7498L31.9612 11.0985L31.5021 10.6308L31.5031 10.6299Z" fill="black"/>
<path d="M31.5031 10.6299L31.9629 11.0995L32.1592 11.2184L32.1287 11.2688L27.8788 8.6266L26.8429 10.3374L31.1233 12.9292C31.3544 13.0692 31.6324 13.1096 31.8938 13.0414C32.1552 12.9732 32.3779 12.8021 32.5112 12.567C32.617 12.3805 32.7486 12.2094 32.9023 12.059L32.9033 12.058C33.3392 11.6299 33.9252 11.3849 34.5396 11.3752C35.1539 11.3655 35.7475 11.592 36.197 12.0062C36.6463 12.4203 36.917 12.9898 36.9542 13.596C36.9915 14.2021 36.7925 14.7999 36.3976 15.265C36.1002 15.6151 36.0796 16.1228 36.3477 16.4959C36.8317 17.1694 37.0581 17.9918 36.9873 18.8156C36.9164 19.6394 36.5526 20.412 35.9602 20.9942C35.3676 21.5765 34.585 21.9303 33.7527 21.9907C32.9203 22.0511 32.0941 21.8142 31.4224 21.3233C31.0542 21.0541 30.5504 21.0683 30.1979 21.3577C29.9424 21.5674 29.6455 21.722 29.326 21.8113C29.0065 21.9006 28.6717 21.9226 28.3431 21.8758C28.0145 21.829 27.6996 21.7146 27.4184 21.54C27.1372 21.3654 26.8961 21.1345 26.7103 20.8624C26.5244 20.5904 26.3979 20.283 26.3384 19.96C26.2789 19.637 26.2878 19.3052 26.3646 18.9857C26.4413 18.6663 26.5842 18.366 26.7844 18.1041C26.9847 17.8422 27.2379 17.6245 27.5281 17.465C27.766 17.3343 27.9405 17.1126 28.0116 16.8507C28.0828 16.5887 28.0444 16.3092 27.9053 16.0761L25.3463 11.7879L23.6288 12.8127L25.72 16.317C25.5291 16.4914 25.3535 16.6828 25.1957 16.8893C24.8262 17.3725 24.5619 17.9274 24.4199 18.5186C24.2779 19.1099 24.2614 19.7241 24.3714 20.3221C24.4815 20.9201 24.7157 21.4883 25.0588 21.9906C25.4019 22.4928 25.8463 22.9179 26.3633 23.239C26.8803 23.5601 27.4586 23.7701 28.0614 23.8559C28.6641 23.9416 29.2782 23.9013 29.8644 23.7374C30.2105 23.6407 30.5424 23.5021 30.853 23.3255C31.7785 23.8307 32.8353 24.0626 33.8975 23.9855C35.2018 23.8908 36.4303 23.3364 37.362 22.4207C38.2939 21.5048 38.868 20.2875 38.9799 18.9871C39.0708 17.93 38.8516 16.8752 38.357 15.9478C38.794 15.2051 39.004 14.3445 38.9505 13.4733C38.8815 12.3504 38.3801 11.2983 37.5523 10.5354C36.7245 9.77269 35.6341 9.35769 34.5081 9.37543C33.3824 9.39317 32.3061 9.84196 31.5031 10.6299Z" fill="black"/>
<path fill-rule="evenodd" clip-rule="evenodd" d="M6.6848 36C6.79627 35.517 6.98674 35.0642 7.24187 34.656L6.05029 33.4645C5.65976 33.0739 5.65976 32.4408 6.05029 32.0503C6.44081 31.6597 7.07398 31.6597 7.4645 32.0503L8.65608 33.2418C9.06427 32.9867 9.51703 32.7962 10 32.6848V31C10 30.4477 10.4477 30 11 30C11.5523 30 12 30.4477 12 31V32.6848C12.483 32.7962 12.9357 32.9867 13.3439 33.2418L14.5355 32.0503C14.926 31.6597 15.5592 31.6597 15.9497 32.0503C16.3402 32.4408 16.3402 33.0739 15.9497 33.4645L14.7581 34.656C15.0133 35.0642 15.2037 35.517 15.3152 36H17C17.5523 36 18 36.4477 18 37C18 37.5522 17.5523 38 17 38H15.3152C15.2037 38.4829 15.0133 38.9357 14.7581 39.3439L15.9497 40.5354C16.3402 40.926 16.3402 41.5591 15.9497 41.9497C15.5592 42.3402 14.926 42.3402 14.5355 41.9497L13.3439 40.7581C12.9357 41.0132 12.483 41.2037 12 41.3152V43C12 43.5522 11.5523 44 11 44C10.4477 44 10 43.5522 10 43V41.3152C9.51703 41.2037 9.06427 41.0132 8.65608 40.7581L7.46452 41.9497C7.07399 42.3402 6.44083 42.3402 6.0503 41.9497C5.65978 41.5591 5.65978 40.926 6.0503 40.5354L7.24187 39.3439C6.98674 38.9357 6.79627 38.4829 6.6848 38H5C4.44772 38 4 37.5522 4 37C4 36.4477 4.44772 36 5 36H6.6848ZM8.57143 37C8.57143 36.3324 8.84081 35.7277 9.2768 35.2887L9.28277 35.2827L9.28871 35.2768C9.72771 34.8408 10.3324 34.5714 11 34.5714C11.6676 34.5714 12.2723 34.8408 12.7113 35.2768L12.7172 35.2827L12.7234 35.2889C13.1593 35.7279 13.4286 36.3325 13.4286 37C13.4286 37.6669 13.1597 38.2711 12.7244 38.71L12.7172 38.7172L12.7101 38.7244C12.2712 39.1597 11.667 39.4285 11 39.4285C10.333 39.4285 9.72884 39.1597 9.28993 38.7244L9.28279 38.7172L9.27558 38.71C8.8403 38.2711 8.57143 37.6669 8.57143 37Z" fill="black"/>
<path d="M26.4014 27.6629L27.0643 26.9142L25.567 25.5884L24.9041 26.337C23.9996 27.3585 23.3653 28.6148 23.1167 30H20V29.7999C20 29.2477 19.5523 28.7999 19 28.7999C18.4477 28.7999 18 29.2477 18 29.7999V32.1999C18 32.7522 18.4477 33.1999 19 33.1999C19.5523 33.1999 20 32.7522 20 32.1999V32H23.0312C23.1672 33.4871 23.7416 34.8449 24.6252 35.9605L22.6 37.9858L22.1071 37.4929C21.7166 37.1024 21.0834 37.1024 20.6929 37.4929C20.3024 37.8834 20.3024 38.5166 20.6929 38.9071L23.0929 41.3071C23.4834 41.6976 24.1166 41.6976 24.5071 41.3071C24.8976 40.9166 24.8976 40.2834 24.5071 39.8929L24.0142 39.4L26.057 37.3571C27.1745 38.2005 28.5288 38.7631 30 38.9402V42H29.8C29.2477 42 28.8 42.4477 28.8 43C28.8 43.5522 29.2477 44 29.8 44H30.9938L31 44L31.0062 44H32.2C32.7523 44 33.2 43.5522 33.2 43C33.2 42.4477 32.7523 42 32.2 42H32V38.9402C33.4712 38.7631 34.8255 38.2005 35.943 37.3571L37.7858 39.2L37.2929 39.6929C36.9024 40.0834 36.9024 40.7165 37.2929 41.1071C37.6834 41.4976 38.3166 41.4976 38.7071 41.1071L41.1071 38.7071C41.4976 38.3165 41.4976 37.6834 41.1071 37.2929C40.7166 36.9023 40.0834 36.9023 39.6929 37.2929L39.2 37.7858L37.3748 35.9605C38.2584 34.8449 38.8328 33.4871 38.9688 32H42V32.1999C42 32.7522 42.4477 33.1999 43 33.1999C43.5523 33.1999 44 32.7522 44 32.1999V29.7999C44 29.2477 43.5523 28.7999 43 28.7999C42.4477 28.7999 42 29.2477 42 29.7999V30H38.8833C38.7266 29.1275 38.4169 28.3053 37.9824 27.5606L37.8377 27.3126C37.9075 27.2827 37.9773 27.2515 38.047 27.219C39.4626 26.5601 40.7768 25.4061 41.8682 23.4961C42.1423 23.0166 41.9757 22.4057 41.4961 22.1317C41.0166 21.8577 40.4058 22.0243 40.1318 22.5038C39.2232 24.0939 38.2041 24.9399 37.203 25.4059C36.1843 25.8801 35.1013 26 34 26C33.4477 26 33 26.4477 33 27C33 27.5522 33.4477 28 34 28C34.582 28 35.2052 27.9709 35.8483 27.8717L36.255 28.5687C36.7306 29.3836 37 30.3187 37 31.3146C37 34.4117 34.3575 37 31 37C27.6425 37 25 34.4117 25 31.3146C25 29.9287 25.5225 28.6554 26.4014 27.6629Z" fill="black"/>
</svg>

<svg
  xmlns="http://www.w3.org/2000/svg"
  width="24"
  height="24"
  viewBox="0 0 24 24"
  fill="none"
  stroke="currentColor"
  stroke-width="2"
  stroke-linecap="round"
  stroke-linejoin="round"
>
  <path
    fill-rule="evenodd"
    d="m23.153 4.883 1.414 1.414a3 3 0 0 1 0 4.242l-2.536 2.536v3a3 3 0 0 1-.878 2.121l-5.779 5.778a5 5 0 0 1-7.07 0l-2.83-2.828a5 5 0 0 1 0-7.071l5.779-5.778a3 3 0 0 1 2.121-.879h3l2.536-2.535a3 3 0 0 1 4.243 0m-1.415 1.414a1 1 0 0 0-1.414 0l-2.121 2.121 2.828 2.829 2.122-2.122a1 1 0 0 0 0-1.414zm-5.364 3.121h-3a1 1 0 0 0-.707.293L6.89 15.489a3 3 0 0 0 0 4.243l2.829 2.828a3 3 0 0 0 4.242 0l5.778-5.778a1 1 0 0 0 .293-.707v-3z"
    clip-rule="evenodd"
  />
  <path d="m31.503 10.63-.118.12.576.348z" />
  <path d="m31.503 10.63.46.47.196.118-.03.05-4.25-2.641-1.036 1.71 4.28 2.592a1 1 0 0 0 1.388-.362q.16-.282.391-.508l.001-.001a2.39 2.39 0 0 1 3.294-.052 2.355 2.355 0 0 1 .2 3.259 1 1 0 0 0-.05 1.23 3.466 3.466 0 0 1-.387 4.5 3.518 3.518 0 0 1-4.538.33 1 1 0 0 0-1.224.033 2.39 2.39 0 0 1-1.855.518 2.4 2.4 0 0 1-1.633-1.014 2.355 2.355 0 0 1 .818-3.397 1 1 0 0 0 .377-1.389l-2.559-4.288-1.717 1.025 2.091 3.504a4.37 4.37 0 0 0-1.349 4.005 4.36 4.36 0 0 0 1.992 2.917 4.39 4.39 0 0 0 4.49.087 5.52 5.52 0 0 0 6.509-.905 5.463 5.463 0 0 0 .995-6.473 4.35 4.35 0 0 0-.805-5.413 4.39 4.39 0 0 0-6.049.095" />
  <path
    fill-rule="evenodd"
    d="M6.685 36c.111-.483.302-.936.557-1.344L6.05 33.465a1 1 0 1 1 1.415-1.415l1.191 1.192A4.4 4.4 0 0 1 10 32.685V31a1 1 0 1 1 2 0v1.685c.483.111.936.302 1.344.557l1.192-1.192a1 1 0 1 1 1.414 1.415l-1.192 1.191c.255.408.446.861.557 1.344H17a1 1 0 1 1 0 2h-1.685a4.4 4.4 0 0 1-.557 1.344l1.192 1.191a1 1 0 0 1-1.414 1.415l-1.192-1.192c-.408.255-.861.446-1.344.557V43a1 1 0 0 1-2 0v-1.685a4.4 4.4 0 0 1-1.344-.557L7.465 41.95a1 1 0 0 1-1.415-1.415l1.192-1.191A4.4 4.4 0 0 1 6.685 38H5a1 1 0 0 1 0-2zm1.886 1c0-.668.27-1.272.706-1.711l.006-.006.006-.006A2.42 2.42 0 0 1 11 34.57c.668 0 1.272.27 1.711.706l.006.006.006.006A2.42 2.42 0 0 1 13.43 37a2.42 2.42 0 0 1-.705 1.71l-.007.007-.007.007a2.42 2.42 0 0 1-1.71.705 2.42 2.42 0 0 1-1.71-.705l-.007-.007-.007-.007A2.42 2.42 0 0 1 8.57 37"
    clip-rule="evenodd"
  />
  <path d="m26.401 27.663.663-.749-1.497-1.326-.663.749A7.53 7.53 0 0 0 23.117 30H20v-.2a1 1 0 0 0-2 0v2.4a1 1 0 1 0 2 0V32h3.031a7.46 7.46 0 0 0 1.594 3.96L22.6 37.987l-.493-.493a1 1 0 0 0-1.414 1.414l2.4 2.4a1 1 0 0 0 1.414-1.414l-.493-.493 2.043-2.043A8.16 8.16 0 0 0 30 38.94V42h-.2a1 1 0 1 0 0 2h2.4a1 1 0 0 0 0-2H32v-3.06a8.16 8.16 0 0 0 3.943-1.583l1.843 1.843-.493.493a1 1 0 0 0 1.414 1.414l2.4-2.4a1 1 0 0 0-1.414-1.414l-.493.493-1.825-1.825A7.46 7.46 0 0 0 38.969 32H42v.2a1 1 0 1 0 2 0v-2.4a1 1 0 0 0-2 0v.2h-3.117a7.5 7.5 0 0 0-.9-2.44l-.145-.247q.105-.045.209-.094c1.416-.659 2.73-1.813 3.821-3.723a1 1 0 1 0-1.736-.992c-.909 1.59-1.928 2.436-2.929 2.902C36.184 25.88 35.101 26 34 26a1 1 0 1 0 0 2c.582 0 1.205-.03 1.848-.128l.407.697c.476.815.745 1.75.745 2.746C37 34.412 34.358 37 31 37s-6-2.588-6-5.685c0-1.386.523-2.66 1.401-3.652" />
</svg>
